v3/src/assets/plugins/plugin-nhanes-portal-icon.svg

<?xml version="1.0" encoding="UTF-8"?>
<svg width="24px" height="24px" viewBox="0 0 24 24" version="1.1" xmlns="http://www.w3.org/2000/svg" xmlns:xlink="http://www.w3.org/1999/xlink">
    <title>5DE6BE65-56CB-40AB-89F5-2D314588E920</title>
    <g id="Plugin-NHANES-Portal-ICON" stroke="none" fill="none" fill-rule="nonzero">
        <rect id="Rectangle" x="0" y="0" width="24" height="24"></rect>
        <path d="M13.5,22 C11.7,22 10.1666667,21.3666667 8.9,20.1 C7.63333333,18.8333333 7,17.3 7,15.5 L7,14.925 C5.56666667,14.6916667 4.375,14.0208333 3.425,12.9125 C2.475,11.8041667 2,10.5 2,9 L2,3 L5,3 L5,2 L7,2 L7,6 L5,6 L5,5 L4,5 L4,9 C4,10.1 4.39166667,11.0416667 5.175,11.825 C5.95833333,12.6083333 6.9,13 8,13 C9.1,13 10.0416667,12.6083333 10.825,11.825 C11.6083333,11.0416667 12,10.1 12,9 L12,5 L11,5 L11,6 L9,6 L9,2 L11,2 L11,3 L14,3 L14,9 C14,10.5 13.525,11.8041667 12.575,12.9125 C11.625,14.0208333 10.4333333,14.6916667 9,14.925 L9,15.5 C9,16.75 9.4375,17.8125 10.3125,18.6875 C11.1875,19.5625 12.25,20 13.5,20 C14.75,20 15.8125,19.5625 16.6875,18.6875 C17.5625,17.8125 18,16.75 18,15.5 L18,13.825 C17.4166667,13.625 16.9375,13.2666667 16.5625,12.75 C16.1875,12.2333333 16,11.65 16,11 C16,10.1666667 16.2916667,9.45833333 16.875,8.875 C17.4583333,8.29166667 18.1666667,8 19,8 C19.8333333,8 20.5416667,8.29166667 21.125,8.875 C21.7083333,9.45833333 22,10.1666667 22,11 C22,11.65 21.8125,12.2333333 21.4375,12.75 C21.0625,13.2666667 20.5833333,13.625 20,13.825 L20,15.5 C20,17.3 19.3666667,18.8333333 18.1,20.1 C16.8333333,21.3666667 15.3,22 13.5,22 Z" id="Path" fill="#006C8E"></path>
        <path d="M19,12 C19.2833333,12 19.5208333,11.9041667 19.7125,11.7125 C19.9041667,11.5208333 20,11.2833333 20,11 C20,10.7166667 19.9041667,10.4791667 19.7125,10.2875 C19.5208333,10.0958333 19.2833333,10 19,10 C18.7166667,10 18.4791667,10.0958333 18.2875,10.2875 C18.0958333,10.4791667 18,10.7166667 18,11 C18,11.2833333 18.0958333,11.5208333 18.2875,11.7125 C18.4791667,11.9041667 18.7166667,12 19,12 Z" id="Path" fill="#D3F4FF"></path>
    </g>
</svg>

<svg viewBox="0 0 24 24" xmlns="http://www.w3.org/2000/svg">
    <g fill="none">
        <path d="M0 0h24v24H0z"/>
        <path d="M13.5 22c-1.8 0-3.333-.633-4.6-1.9C7.633 18.833 7 17.3 7 15.5v-.575c-1.433-.233-2.625-.904-3.575-2.013C2.475 11.804 2 10.5 2 9V3h3V2h2v4H5V5H4v4c0 1.1.392 2.042 1.175 2.825C5.958 12.608 6.9 13 8 13s2.042-.392 2.825-1.175C11.608 11.042 12 10.1 12 9V5h-1v1H9V2h2v1h3v6c0 1.5-.475 2.804-1.425 3.912-.95 1.109-2.142 1.78-3.575 2.013v.575c0 1.25.438 2.313 1.313 3.188C11.187 19.563 12.25 20 13.5 20c1.25 0 2.313-.438 3.188-1.313S18 16.75 18 15.5v-1.675a2.91 2.91 0 0 1-1.438-1.075A2.906 2.906 0 0 1 16 11c0-.833.292-1.542.875-2.125A2.893 2.893 0 0 1 19 8c.833 0 1.542.292 2.125.875S22 10.167 22 11c0 .65-.188 1.233-.563 1.75A2.91 2.91 0 0 1 20 13.825V15.5c0 1.8-.633 3.333-1.9 4.6-1.267 1.267-2.8 1.9-4.6 1.9z" fill="#006C8E"/>
        <path d="M19 12c.283 0 .52-.096.712-.287A.968.968 0 0 0 20 11a.968.968 0 0 0-.288-.713A.968.968 0 0 0 19 10a.968.968 0 0 0-.712.287A.968.968 0 0 0 18 11c0 .283.096.52.288.713.191.191.429.287.712.287z" fill="#D3F4FF"/>
    </g>
</svg>
